!!!COM: Mozart, Wolfgang Amadeus
!!!OTL: String Quartet No. 20 in D Major ("Hoffmeister")
!!!OMD: Allegretto
!!!OMV: 1
!!!SCT1: K<sup>1</sup> 499
!!!SCA: Chronologisch-thematisches Verzeichnis sämtlicher Tonwerke Wolfgang Amade Mozarts (L. von Köchel; 1862, 2/1905, 3/1937, 1947)
!!!SCT2: K<sup>6</sup> 499
!!!YOR: Breitkopf & Härtel Edition
!!!ENC: Frances Bennion
!!!CDT: 1756/1/27/-1791/12/5/
!!!OCY: Österreich
!!!YEC: Copyright (c) 1994, 2000 Center for Computer Assisted Research in the Humanities
!!!YEM: Rights to all derivative editions reserved.
!!!YEM: Refer to licensing agreement for further details.
!!!YEN: United States of America
**kern	**kern	**kern	**kern
*k[f#c#]	*k[f#c#]	*k[f#c#]	*k[f#c#]
*D:	*D:	*D:	*D:
*clefC	*clefF	*clefG	*clefG
*M2/2	*M2/2	*M2/2	*M2/2
2.r	2.r	2.r	2.r
4f#	4f#	4ff#	4ff#
=1	=1	=1	=1
8d	8d	8dd	8dd
8r	8r	8r	8r
4d	4d	4dd	4dd
8F#	8F#	8f#	8f#
8r	8r	8r	8r
4F#	4F#	4f#	4f#
=2	=2	=2	=2
2.A	2.A	2.a	2.a
8.F#	8.F#	8.f#	8.f#
16D	16D	16d	16d
=3	=3	=3	=3
4AA	4A	4A	4A
4AA	4A	4A	4A
4AA	4A	4A	4A
4AA	4A	4A	4A
=4	=4	=4	=4
[1AA	2.A	[1A	2.A
.	8.C#	.	8.g
.	16E	.	16e
=5	=5	=5	=5
1AA_	4G	1A_	4c#
.	4G	.	4c#
.	4G	.	4c#
.	4G	.	4c#
=6	=6	=6	=6
4AA]	2.G	2.A]	2.c#
8.E	.	.	.
16C#	.	.	.
[2AA	.	.	.
.	8.C#	8.g	8.b
.	16E	16e	16g
=7	=7	=7	=7
1AA_	4G	4c#	4e
.	4G	4c#	4e
.	4G	4c#	4e
.	4G	4c#	4e
=8	=8	=8	=8
4AA]	2.G	2.c#	2.e
8.E	.	.	.
16C#	.	.	.
[2AA	.	.	.
.	8.E	8.cc#	8.ee
.	16G	16g	16cc#
=9	=9	=9	=9
4AA]	4c#	4e	4g
4AA	4c#	4e	4g
4AA#	4c#	4e	4g
4AA#	4c#	4e	4g
=10	=10	=10	=10
4BB	4d	2d	4f#
4GG	4B	.	4b
4r	4r	4r	4r
4GG	4E	[4A	4c#
=11	=11	=11	=11
4FF#	4F#	4A]	4d
4BB	4G	2d	4g
4AA	4A	.	4f#
4AA	4A 4G	4c#	4e
=12	=12	=12	=12
4D	[2A 2G	2c#	2e
4AA	.	.	.
4DD	4A] 4F#	4d	4f#
4r	4r	4r	4ddd
=13	=13	=13	=13
1r	1r	4r	8ff#
.	.	.	8r
.	.	8.dd	4ff#
.	.	16b	.
.	.	4g	8bb
.	.	.	8r
.	.	8.g	4bb
.	.	16e	.
=14	=14	=14	=14
1r	1r	4c#	4ee
.	.	8.f#	2aa
.	.	16d	.
.	.	4B	.
.	.	8.b	8.gg
.	.	16g	16ee
=15	=15	=15	=15
1r	1r	4f#	4dd
.	.	8.b	4dd
.	.	16g#	.
.	.	4a	4dd
.	.	4A	8.ee
.	.	.	16ff#
=16	=16	=16	=16
1r	2.r	4d	4dd
.	.	8.f#	2.r
.	.	16a	.
.	.	4dd	.
.	4dd	4r	.
=17	=17	=17	=17
4r	8f#	1r	1r
.	8r	.	.
8.d	4f#	.	.
16B	.	.	.
4G	8b	.	.
.	8r	.	.
8.G	4b	.	.
16E	.	.	.
=18	=18	=18	=18
4C#	4e	1r	1r
8.F#	2a	.	.
16D	.	.	.
4BB	.	.	.
8.B	8.g	.	.
16G	16e	.	.
=19	=19	=19	=19
4F#	4d	1r	1r
8.B	4d	.	.
16G#	.	.	.
4A	4d	.	.
4AA	8.e	.	.
.	16f#	.	.
=20	=20	=20	=20
4D	4d	4r	4r
2.r	2.r	4b	8dd
.	.	.	8ee
.	.	4a	8ff#
.	.	.	8gg
.	.	4A	8ee
.	.	.	8ff#
=21	=21	=21	=21
4r	4r	4d	4dd
4B	8d	2.r	2.r
.	8e	.	.
4A	8f#	.	.
.	8g	.	.
4AA	8e	.	.
.	8f#	.	.
=22	=22	=22	=22
4D	4d	4r	4r
2r	2r	4a	8.ee
.	.	.	16ff#
.	.	4f#	4dd
4A	8.e	4r	4r
.	16f#	.	.
=23	=23	=23	=23
4F#	4d	4r	4r
2D	4f#	4a	4ff#
.	4e	4b	4gg#
4C#	4e	4ee	4aa#
=24	=24	=24	=24
2BB	2f#	2dd	2bb
2AA#	2f#	2cc#	2ff#
=25	=25	=25	=25
2BB	2f#	2b	4.dd
.	.	.	16cc#
.	.	.	16dd
4r	4r	4r	[2b
4d	4d	4f#	.
=26	=26	=26	=26
2c#	2e	2g	4b]
.	.	.	4a#
4r	4r	4r	4gg
4A#	[4f#	4cc#	4ff#
=27	=27	=27	=27
4B	4f#]	2cc#	2ee
2BB	4a#	.	.
.	4b	4b	4dd
8C#	4r	4r	4r
8D	.	.	.
=28	=28	=28	=28
4E	[1B	[1g#	2dd
4G#	.	.	.
4B	.	.	4dd
4G#	.	.	4dd
=29	=29	=29	=29
4E	4B]	8g#]	8ee
.	.	8b	8dd
2.r	4E	8a	8cc#
.	.	8g#	8b
.	4e	[2g#	[2b
.	4e	.	.
=30	=30	=30	=30
1r	[1e	8g#]	8b]
.	.	8a	8cc#
.	.	8b	8dd
.	.	8b#	8dd#
.	.	4cc#	4ee
.	.	4b	4dd
=31	=31	=31	=31
4r	2.e]	4g#	4b#
4AA	.	4a	4cc#
4A	.	4r	4r
4A	4c#	4e	4ee
=32	=32	=32	=32
[1A	4.d	4.f#	4.ff#
.	8e	8g#	8gg#
.	8f#	8a	8aa
.	8e	8g#	8gg#
.	8f#	8a	8aa
.	8d	8f#	8ff#
=33	=33	=33	=33
4A]	4c#	4e	4ee
4AA	4A	4c#	4cc#
4A	4r	4r	4r
4A	4c#	4e	4ee
=34	=34	=34	=34
[1A	8d	8f#	8ff#
.	8e	8g#	8gg#
.	8f#	8a	8aa
.	8e	8g#	8gg#
.	8f#	8a	8aa
.	8e	8g#	8gg#
.	8f#	8a	8aa
.	8d	8f#	8ff#
=35	=35	=35	=35
4A]	4c#	4e	4ee
4AA	4A	4c#	4cc#
8r	[2e	8r	8r
8A	.	8cc#	8ee
8B	.	8b	8dd
8c#	.	8a	8cc#
=36	=36	=36	=36
8d	8e]	8g#	8b
8d	8e	8g#	8b
4d	8e	4g#	4b
.	8e	.	.
8r	[2e	8r	8r
8A	.	8cc#	8ee
8B	.	8b	8dd
8c#	.	8a	8cc#
=37	=37	=37	=37
8d	8e]	8g#	8b
8d	8e	8g#	8b
4d	8e	4g#	4b
.	8e	.	.
8r	2e	8r	8r
8A	.	8cc	8ee
8B	.	8b	8dd
8c	.	8a	8cc
=38	=38	=38	=38
4d	4f	4g#	4b
4d	4f	4g#	4b
4d	4f	4g#	4b
4d	4f	4g#	4b
=39	=39	=39	=39
2d#	1f#	1a	2.b
2D#	.	.	.
.	.	.	8cc
.	.	.	8b
=40	=40	=40	=40
4E	4B	8g#	4b
.	.	8e	.
2.r	2.r	8g#	2r
.	.	8e	.
.	.	8B	.
.	.	8e	.
.	.	8g#	4bb
.	.	8e	.
=41	=41	=41	=41
2.r	4r	8B	8gg#
.	.	8e	8r
.	4e	8g#	4gg#
.	.	8e	.
.	8f#	8d#	8b
.	8r	8f#	8r
4B	4d#	8a	4b
.	.	8f#	.
=42	=42	=42	=42
8G#	4b	8e	4ee
8r	.	8g#	.
4G#	2.r	8b	2r
.	.	8g#	.
8BB	.	8d#	.
8r	.	8f#	.
4BB	.	8a	4bb
.	.	8f#	.
=43	=43	=43	=43
4E	4r	8B	8gg#
.	.	8e	8r
2r	4e	8g#	4gg#
.	.	8e	.
.	8f#	8d#	8b
.	8r	8f#	8r
4B	4d#	8a	4b
.	.	8f#	.
=44	=44	=44	=44
8G#	2b	8e	2.ee
8r	.	8g#	.
4G#	.	8b	.
.	.	8g#	.
8BB	2g#	8e	.
8r	.	8g#	.
4BB	.	8b	8.dd
.	.	8g#	.
.	.	.	16b
=45	=45	=45	=45
2.E	2B	8d	8g#
.	.	8e	8r
.	.	8g#	4g#
.	.	8e	.
.	2G#	8d	8b
.	.	8e	8r
8.D	.	8g#	4b
.	.	8e	.
16BB	.	.	.
=46	=46	=46	=46
8GG#	[1E	8B	2.e
8r	.	8d	.
4GG#	.	8e	.
.	.	8d	.
8BB	.	8G#	.
8r	.	8B	.
4BB	.	8d	8f#
.	.	8B	8e
=47	=47	=47	=47
2.EE	1E_	8G#	4e
.	.	8B	.
.	.	8d	4e
.	.	8B	.
.	.	8G#	4d
.	.	8B	.
8FF#	.	8d	4d
8EE	.	8B	.
=48	=48	=48	=48
4EE	1E_	8A	4c#
.	.	8c#	.
4EE	.	8e	2r
.	.	8c#	.
4DD	.	8B	.
.	.	8e	.
4DD	.	8g#	12e
.	.	.	12f#
.	.	8e	.
.	.	.	12g#
=49	=49	=49	=49
4CC#	1E_	8c#	4a
.	.	8e	.
2r	.	8a	4a
.	.	8e	.
.	.	8d	4b
.	.	8e	.
12EE	.	8g#	4b
12FF#	.	.	.
.	.	8e	.
12GG#	.	.	.
=50	=50	=50	=50
4AA	1E_	8c#	12cc#
.	.	.	12dd
.	.	8e	.
.	.	.	12cc#
4AA	.	8a	12a
.	.	.	12b
.	.	8e	.
.	.	.	12cc#
4BB	.	8d	12dd
.	.	.	12ee
.	.	8e	.
.	.	.	12dd
4BB	.	8g#	12b
.	.	.	12cc#
.	.	8e	.
.	.	.	12dd
=51	=51	=51	=51
12C#	4E]	8e	4ee
12D	.	.	.
.	.	8a	.
12C#	.	.	.
12AA	2e	8cc#	4r
12BB	.	.	.
.	.	8a	.
12C#	.	.	.
12D	.	8f#	4ff#
12E	.	.	.
.	.	8a	.
12D	.	.	.
12BB	8d	8dd	4r
12C#	.	.	.
.	8f#	8a	.
12D	.	.	.
=52	=52	=52	=52
4E	4b	4dd	4gg#
4F#	4a	4cc#	4aa
2r	2r	2r	4r
.	.	.	4a
=53	=53	=53	=53
2.r	4r	1r	[1dd
.	4A	.	.
.	2f#	.	.
4AA	.	.	.
=54	=54	=54	=54
2.D	1f	4r	1dd_
.	.	4d	.
.	.	4b-	.
4BB	.	4a	.
=55	=55	=55	=55
4E	2e	2g#	4dd]
4C#	.	.	4ee
4F#	4A	[2a	8dd
.	.	.	8cc#
4C#	4e	.	8b
.	.	.	8a
=56	=56	=56	=56
4D	2f#	2a]	1b
4BB	.	.	.
4E	4e	2g#	.
4EE	4d	.	.
=57	=57	=57	=57
2FF#	4c#	8a	4a
.	.	8f#	.
.	2.r	8c#	2.r
.	.	8B	.
4r	.	8A	.
.	.	8c#	.
4FF#	.	8f#	.
.	.	8c#	.
=58	=58	=58	=58
2EE#	1r	8B	1cc#
.	.	8c#	.
.	.	8g#	.
.	.	8c#	.
4r	.	8B	.
.	.	8c#	.
4CC#	.	8e#	.
.	.	8c#	.
=59	=59	=59	=59
2FF#	1r	8f#	2a
.	.	8c#	.
.	.	8A	.
.	.	8c#	.
8r	.	8A	2f#
8FF#	.	8c#	.
8AA	.	8f#	.
8FF#	.	8c#	.
=60	=60	=60	=60
2EE#	1r	8G#	2.c#
.	.	8B	.
.	.	8c#	.
.	.	8B	.
8r	.	8G#	.
8CC#	.	8B	.
8EE#	.	8G#	8d
8CC#	.	8B	8c#
=61	=61	=61	=61
[1FF#	2.r	8A	2.c#
.	.	8c#	.
.	.	8f#	.
.	.	8c#	.
.	.	8A	.
.	.	8c#	.
.	4cc#	8f#	4ccc#
.	.	8c#	.
=62	=62	=62	=62
1FF#]	8a	8f#	8aa
.	8r	8c#	8r
.	4a	8A	4aa
.	.	8c#	.
.	8c#	8A	8cc#
.	8r	8c#	8r
.	4c#	8f#	4cc#
.	.	8c#	.
=63	=63	=63	=63
[1EE	2.e	8A	2.ee
.	.	8c#	.
.	.	8e	.
.	.	8c#	.
.	.	8A	.
.	.	8c#	.
.	8.c#	8e	8.cc#
.	.	8c#	.
.	16A	.	16a
=64	=64	=64	=64
1EE]	4E	8G#	4e
.	.	8B	.
.	4E	8d	4e
.	.	8B	.
.	4E	8d	4e
.	.	8B	.
.	4G#	8e	4g#
.	.	8d	.
=65	=65	=65	=65
2FF	4A	8c	4a
.	.	8f	.
.	16dd	8a	2.r
.	8.cc	.	.
.	.	8f	.
4r	[2cc	8A	.
.	.	8c	.
4FF	.	8f	.
.	.	8c	.
=66	=66	=66	=66
2EE	4cc]	8B-	2.r
.	.	8c	.
.	16b	8g	.
.	8.cc	.	.
.	.	8c	.
4r	[2cc	8G	.
.	.	8c	.
4CC	.	8e	16ccc
.	.	.	8.bb-
.	.	8c	.
=67	=67	=67	=67
2FF	4cc]	8A	2.aa
.	.	8c	.
.	16dd	8f	.
.	8.cc	.	.
.	.	8c	.
8r	[2cc	8A	.
8FF	.	8c	.
8AA	.	8f	16gg#
.	.	.	8.aa
8FF	.	8c	.
=68	=68	=68	=68
2EE	4cc]	8G	2.bb-
.	.	8c	.
.	16b	8g	.
.	8.cc	.	.
.	.	8c	.
8r	[2cc	8G	.
8CC	.	8e	.
8EE	.	8g	16ccc
.	.	.	8.bb-
8CC	.	8e	.
=69	=69	=69	=69
[1FF	4cc]	8f	2.aa
.	.	8a	.
.	16dd	8f	.
.	8.cc	.	.
.	.	8c	.
.	4cc	8A	.
.	.	8c	.
.	4cc	8f	4ccc
.	.	8c	.
=70	=70	=70	=70
1FF]	8a	8d#	8aa
.	8r	8c	8r
.	4a	8d#	4aa
.	.	8c	.
.	8c	8A	8cc
.	8r	8c	8r
.	4c	8d#	4cc
.	.	8c	.
=71	=71	=71	=71
[1EE	2.e	8A	2.ee
.	.	8c#	.
.	.	8e	.
.	.	8c#	.
.	.	8A	.
.	.	8c#	.
.	8.c#	8e	8.cc#
.	.	8c#	.
.	16A	.	16a
=72	=72	=72	=72
1EE]	4E	8G#	4e
.	.	8B	.
.	4E	8d	4e
.	.	8B	.
.	4E	8d	4e
.	.	8B	.
.	4G#	8e	4g#
.	.	8d	.
=73	=73	=73	=73
4AA	4A	4c#	4a
2r	2r	2r	8a
.	.	.	16g#
.	.	.	16a
.	.	.	4f#
4D	4B	4f#	8b
.	.	.	8r
=74	=74	=74	=74
4D#	4f#	4a	4r
4E	4e	4g#	8cc#
.	.	.	16b
.	.	.	16cc#
4r	4r	4r	4a
4F#	4d	4a	8dd
.	.	.	8r
=75	=75	=75	=75
4G	4f	2b	4r
4G#	2e	.	8ee
.	.	.	16dd
.	.	.	16ee
4A	.	4a	4cc#
4D#	4c	8a	4ff#
.	.	16g#	.
.	.	16a	.
=76	=76	=76	=76
4E	4B	4g#	4b
4C#	4B-	8g	4ee
.	.	16f#	.
.	.	16g	.
4D	4A	4f#	4a
4BB	8G#	8f	[4dd
.	8A	16e	.
.	.	16f	.
=77	=77	=77	=77
4GG#	4B	2e	4dd]
4AA	4A	.	4cc#
4D	4f#	8e	8cc#
.	.	8d	8b
4E	4e	8d	8b
.	.	8B	8g#
=78	=78	=78	=78
4AA	4e	4c#	4a
8A	8c#	2r	2r
16G#	16B	.	.
16A	16c#	.	.
4F#	4A	.	.
8B	8d	8b	8dd
8r	8r	16a	16cc#
.	.	16b	16dd
=79	=79	=79	=79
4r	4r	4g#	4b
8c#	8e	8cc#	8ee
16B	16d	4.r	4.r
16c#	16e	.	.
4A	4c#	.	.
8d	8f#	8dd	8ff#
8r	8r	16cc#	16ee
.	.	16dd	16ff#
=80	=80	=80	=80
4r	4r	4b	4dd
8e	8g#	2ee	2gg#
16d	16f#	.	.
16e	16g#	.	.
4c#	4e	.	.
4f#	4cc	4dd#	8aa
.	.	.	16gg#
.	.	.	16aa
=81	=81	=81	=81
4B	4b	4dd	4gg#
4e	4b-	4cc#	8gg
.	.	.	16ff#
.	.	.	16gg
4A	4a	4cc	4ff#
[4d	[4g#	[4b	8ff
.	.	.	16ee
.	.	.	16ff
=82	=82	=82	=82
4d]	4g#]	4b]	[3..ee
4c#	4a	4.cc#	.
4d	4f#	.	.
.	.	.	24ee]
.	.	8b	8dd
4e	4e	8a	8cc#
.	.	8g#	8b
=83	=83	=83	=83
2.A	8e 8c#	8a	4a
.	8e 8c#	8a	.
.	8e 8c#	8a	16ccc#
.	.	.	8.ee
.	8e 8c#	8a	.
.	8e 8c#	8a	[2ee
.	8e 8c#	8a	.
16C#	8e 8c#	8a	.
8.E	.	.	.
.	8e 8c#	8a	.
=84	=84	=84	=84
2.A	8e 8c#	8a	4ee]
.	8e 8c#	8a	.
.	8e 8c#	8a	16ccc#
.	.	.	8.ee
.	8e 8c#	8a	.
.	8e 8c#	8a	4ee
.	8e 8c#	8a	.
16AA	8e 8c#	8a	4ee
8.C#	.	.	.
.	8e 8c#	8a	.
=85	=85	=85	=85
2.D	8f# 8B	8a	4ff#
.	8f# 8B	8a	.
.	8f# 8B	8a	16ddd
.	.	.	8.ff#
.	8f# 8B	8a	.
.	8f# 8B	8a	[2ff#
.	8f# 8B	8a	.
16B	8a	8dd	.
8.d	.	.	.
.	8a	8cc#	.
=86	=86	=86	=86
2e	8a	8b	8ff#]
.	8a	8b	8ee
.	8g#	8b	8ee
.	8g#	8b	8ee
2E	8g#	8b	4ee
.	8g#	8b	.
.	8a	8cc#	8ff#
.	8b	8dd	8gg#
=87	=87	=87	=87
2.A	8a	8cc#	4aa
.	8e 8c#	8a	.
.	8e 8c#	8a	16ccc#
.	.	.	8.ee
.	8e 8c#	8a	.
.	8e 8c#	8a	[2ee
.	8e 8c#	8a	.
16C#	8e 8c#	8a	.
8.E	.	.	.
.	8e 8c#	8a	.
=88	=88	=88	=88
2.A	8e 8c#	8a	4ee]
.	8e 8c#	8a	.
.	8e 8c#	8a	16ccc#
.	.	.	8.ee
.	8e 8c#	8a	.
.	8e 8c#	8a	4ee
.	8e 8c#	8a	.
16AA	8e 8c#	8a	4ee
8.C#	.	.	.
.	8e 8c#	8a	.
=89	=89	=89	=89
2.D	8f# 8B	8a	4ff#
.	8f# 8B	8a	.
.	8f# 8B	8a	16ddd
.	.	.	8.ff#
.	8f# 8B	8a	.
.	8f# 8B	8a	[2ff#
.	8f# 8B	8a	.
16B	8a	8dd	.
8.d	.	.	.
.	8a	8cc#	.
=90	=90	=90	=90
2e	8a	8b	8ff#]
.	8a	8b	8ee
.	8g#	8b	8ee
.	8g#	8b	8ee
2E	8g#	8b	4ee
.	8g#	8b	.
.	8a	8cc#	8ff#
.	8b	8dd	8gg#
=91	=91	=91	=91
4F#	4.a	8cc#	4aa
.	.	4ff#	.
2BB	.	.	16ddd
.	.	.	8.ff#
.	8g#	8ee	.
.	8f#	8dd	[2ff#
.	8e	8cc#	.
8C#	8d	8b	.
8D	8c#	8a	.
=92	=92	=92	=92
2E	8B	8g#	8ff#]
.	8B	8g#	8ee
.	8c#	8a	8ee
.	8c#	8a	8ee
2EE	8d	8b	4ee
.	8f#	8dd	.
.	8e	8cc#	8ff#
.	8d	8b	8gg#
=93	=93	=93	=93
4FF#	8c#	8a	4aa
.	4a	4ff#	.
2BB	.	.	16ddd
.	.	.	8.ff#
.	8g#	8ee	.
.	8f#	8dd	[2ff#
.	8e	8cc#	.
8C#	8d	8b	.
8D	8c#	8a	.
=94	=94	=94	=94
2E	8B	8g#	8ff#]
.	8B	8g#	8ee
.	8c#	8a	8ee
.	8c#	8a	8ee
2EE	8d	8b	4ee
.	8f#	8dd	.
.	8e	8cc#	8ff#
.	8d	8b	8gg#
=95	=95	=95	=95
4AA	8c#	8a	8aa
.	8A	8c#	8ee
4C#	8A	8c#	8ee
.	8A	8c#	8ee
4E	8B	8d	4ee
.	8B	8d	.
4EE	8B	8d	8ff#
.	8B	8d	8gg#
=96	=96	=96	=96
4AA	8A	8c#	8aa
.	8A	8c#	8ee
4C#	8A	8c#	8ee
.	8A	8c#	8ee
4E	8B	8d	4ee
.	8B	8d	.
4EE	8B	8d	8ff#
.	8B	8d	8gg#
=97	=97	=97	=97
8AA	8A	8c#	8aa
8r	8r	8ee	8ccc#
8E	8g#	8dd	8bb
8r	8r	8ee	8ccc#
8A	8a	8cc#	8aa
8r	8r	8ee	8ccc#
8E	8g#	8dd	8bb
8r	8r	8ee	8ccc#
=98	=98	=98	=98
4AA	4a	4cc#	4aa
4r	4r	4r	4r
4r	4r	4r	4r
4r	4r	4r	4r
=99	=99	=99	=99
8AA	8e	8cc	8aa
8r	8r	8ee	8ccc
8E	8g#	8dd	8bb
8r	8r	8ee	8ccc
8A	8a	8cc	8aa
8r	8r	8ee	8ccc
8E	8g#	8dd	8bb
8r	8r	8ee	8ccc
=100	=100	=100	=100
4AA	4a	4cc	4aa
2.r	2.r	2.r	2.r
=101	=101	=101	=101
1r	8g	8ee	4ccc
.	8b-	8gg	.
.	8a	8ff	4ccc
.	8b-	8gg	.
.	8g	8ee	4ccc
.	8b-	8gg	.
.	8a	8ff	4ccc
.	8b-	8gg	.
=102	=102	=102	=102
2.r	8g	8ee	[1ccc
.	8b-	8gg	.
.	8a	8ff	.
.	8b-	8gg	.
.	8g	8ee	.
.	8b-	8gg	.
4A	8a	8ff	.
.	8g	8ee	.
=103	=103	=103	=103
8F	8a	8ff	1ccc_
8r	8cc	8aa	.
4F	8b-	8gg	.
.	8cc	8aa	.
8AA	8a	8ff	.
8r	8cc	8aa	.
4AA	8b-	8gg	.
.	8cc	8aa	.
=104	=104	=104	=104
2.C	8a	8ff	1ccc_
.	8cc	8aa	.
.	8b-	8gg	.
.	8cc	8aa	.
.	8a	8ff	.
.	8cc	8aa	.
8.AA	8b-	8gg	.
.	8a	8ff	.
16FF	.	.	.
=105	=105	=105	=105
4CC	4b-	8gg	8ccc]
.	.	8bb-	8ggg
4CC	2.r	8aa	8fff
.	.	8bb-	8ggg
4CC	.	8gg	8eee
.	.	8bb-	8ggg
4CC	.	8aa	8fff
.	.	8bb-	8ggg
=106	=106	=106	=106
[1CC	2.r	8gg	8eee
.	.	8bb-	8ggg
.	.	8aa	8fff
.	.	8bb-	8ggg
.	.	8gg	8eee
.	.	8bb-	8ggg
.	4a	8aa	8fff
.	.	8gg	8eee
=107	=107	=107	=107
4CC]	8f	8aa	8fff
.	8r	8aa	8ccc
2.r	4f	8gg	8bb-
.	.	8aa	8ccc
.	8A	8ff	8aa
.	8r	8aa	8ccc
.	4A	8gg	8bb-
.	.	8aa	8ccc
=108	=108	=108	=108
1r	2.c	8ff	8aa
.	.	8aa	8ccc
.	.	8gg	8bb-
.	.	8aa	8ccc
.	.	8ff	8aa
.	.	8aa	8ccc
.	8.A	8gg	8bb-
.	.	8ff	8aa
.	16F	.	.
=109	=109	=109	=109
8r	4C#	4gg	8bb-
8g	.	.	8bb-
8f	4C#	2.r	8aa
8g	.	.	8bb-
8e	4C#	.	8gg
8g	.	.	8bb-
8f	4C#	.	8aa
8g	.	.	8bb-
=110	=110	=110	=110
8e	2C#	2.r	8gg
8g	.	.	8bb-
8f	.	.	8aa
8g	.	.	8bb-
8e	2A	.	8gg
8g	.	.	8bb-
8f	.	4ff	8aa
8e	.	.	8gg
=111	=111	=111	=111
8f	4D	8dd	8aa
8f	.	8r	8aa
8e	2.r	4dd	8gg
8f	.	.	8aa
8d	.	8f	8ff
8f	.	8r	8aa
8e	.	4f	8gg
8f	.	.	8aa
=112	=112	=112	=112
8d	1r	2.a	8ff
8f	.	.	8aa
8e	.	.	8gg
8f	.	.	8aa
8d	.	.	8ff
8f	.	.	8aa
8e	.	8.f	8gg
8d	.	.	8ff
.	.	16d	.
=113	=113	=113	=113
8e	8r	4A	4gg
8e	8g	.	.
8d	8f	4A	2.r
8e	8g	.	.
8c#	8e	4A	.
8e	8g	.	.
8d	8f	4A	.
8e	8g	.	.
=114	=114	=114	=114
8c#	8e	[1A	2.r
8e	8g	.	.
8d	8f	.	.
8e	8g	.	.
8c#	8e	.	.
8e	8g	.	.
8d	8f	.	4fff
8c#	8e	.	.
=115	=115	=115	=115
4d	8f	8A]	8ddd
.	8A	8f	8r
2.r	8G	8e	4ddd
.	8A	8f	.
.	8F	8d	8ff
.	8A	8f	8r
.	8G	8e	4ff
.	8A	8f	.
=116	=116	=116	=116
2.r	8F	8d	2.aa
.	8A	8f	.
.	8G	8e	.
.	8A	8f	.
.	8F	8d	.
.	8A	8f	.
4DD	8G	8e	8.ff
.	8F	8d	.
.	.	.	16dd
=117	=117	=117	=117
8FF	8c	8e-	4a
8r	8c	8e-	.
4FF	8B-	8d	4a
.	8c	8e-	.
8AA	8A	8c	4a
8r	8c	8e-	.
4AA	8B-	8d	4a
.	8c	8e-	.
=118	=118	=118	=118
2.C	8A	8c	2.a
.	8c	8e-	.
.	8B-	8d	.
.	8c	8e-	.
.	8A	8c	.
.	8c	8e-	.
8.F	8B-	8d	4ddd
.	8A	8c	.
16E-	.	.	.
=119	=119	=119	=119
4D	8B-	8d	8bb-
.	8d	8f	8r
2.r	8c	8e-	4bb-
.	8d	8f	.
.	8B-	8d	8dd
.	8d	8f	8r
.	8c	8e-	4dd
.	8d	8f	.
=120	=120	=120	=120
2.r	8B-	8d	2.ff
.	8d	8f	.
.	8c	8e-	.
.	8d	8f	.
.	8B-	8d	.
.	8d	8f	.
4BB-	8c	8e-	8.dd
.	8B-	8d	.
.	.	.	16b-
=121	=121	=121	=121
8D	8A	8c	4f#
8r	8c	8e-	.
4D	8B-	8d	4f#
.	8c	8e-	.
8F#	8A	8c	4f#
8r	8c	8e-	.
4F#	8B-	8d	4f#
.	8c	8e-	.
=122	=122	=122	=122
2.A	8A	8c	2.f#
.	8e-	8cc	.
.	8d	8b-	.
.	8e-	8cc	.
.	8c	8a	.
.	8a	8cc	.
8.d	8g	8b-	4bb-
.	8f#	8a	.
16c	.	.	.
=123	=123	=123	=123
4B-	8g	8b-	8gg
.	8d	8b-	8r
2.r	8c	8a	4gg
.	8d	8b-	.
.	8B-	8g	8b-
.	8d	8b-	8r
.	8c	8a	4b-
.	8d	8b-	.
=124	=124	=124	=124
2.r	8B-	8g	2.dd
.	8B-	8d	.
.	8A	8c	.
.	8B-	8d	.
.	8G	8B-	.
.	8B-	8d	.
4GG	8A	8c	8.b-
.	8G	8B-	.
.	.	.	16g
=125	=125	=125	=125
8BB-	8F	8A-	4d
8r	8A-	8f	.
4BB-	8G	8e-	4d
.	8A-	8f	.
8D	8F	8d	4d
8r	8f	8a-	.
4D	8e-	8g	4d
.	8f	8a-	.
=126	=126	=126	=126
2.F	8d	8f	2d
.	8f	8a-	.
.	8e-	8g	.
.	8f	8a-	.
.	8d	8f	[2b-
.	8f	8a-	.
8.D	8e-	8g	.
.	8d	8f	.
16BB-	.	.	.
=127	=127	=127	=127
2.G	8e-	8g	4b-]
.	8g	8b-	.
.	8f	8a-	8.gg
.	8g	8b-	.
.	.	.	16ee-
.	8e-	8g	[2b-
.	8g	8b-	.
8.E-	8f	8a-	.
.	8e-	8g	.
16BB-	.	.	.
=128	=128	=128	=128
2.A-	8d	8f	4b-]
.	8a-	8ff	.
.	8g	8ee-	8.aa-
.	8a-	8ff	.
.	.	.	16ff
.	8f	8dd	[2b-
.	8a-	8ff	.
8.F	8g	8ee-	.
.	8f	8dd	.
16BB-	.	.	.
=129	=129	=129	=129
2.B-	8g	8ee-	4b-]
.	8b-	8gg	.
.	8a-	8ff	8.bb-
.	8b-	8gg	.
.	.	.	16gg
.	8g	8ee-	[2b-
.	8b-	8gg	.
8.G	8a-	8ff	.
.	8g	8ee-	.
16E-	.	.	.
=130	=130	=130	=130
[1BB-	2a-	2dd	4b-]
.	.	.	8.aa-
.	.	.	16ff
.	2f	2g#	4dd
.	.	.	8.ff
.	.	.	16dd
=131	=131	=131	=131
1BB-]	2d	2f	4a-
.	.	.	8.dd
.	.	.	16a-
.	2A-	2d	4f
.	.	.	8.a-
.	.	.	16f
=132	=132	=132	=132
4BB-	[1F	[1G#	4d
8.F	.	.	4d
16D	.	.	.
4BB-	.	.	4d
8.F	.	.	4d
16D	.	.	.
=133	=133	=133	=133
1BB-	4F]	1G#]	4d
.	4D	.	4f
.	4C#	.	4e
.	4D	.	4d
=134	=134	=134	=134
4AA	4E	8A	8c#
.	.	8c#	8e
2r	2.r	8B	8d
.	.	8c#	8e
.	.	8A	8c#
.	.	8c#	8e
4AA	.	8B	8d
.	.	8c#	8e
=135	=135	=135	=135
8C#	1r	8A	8c#
8r	.	8e	8g
4C#	.	8d	8f#
.	.	8e	8g
8E	.	8c#	8e
8r	.	8e	8g
4E	.	8d	8f#
.	.	8e	8g
=136	=136	=136	=136
2A	2.r	8c#	8e
.	.	8g	8b
.	.	8f#	8a
.	.	8g	8b
2r	.	8e	8g
.	.	8g	8ee
.	4A	8f#	8dd
.	.	8g	8ee
=137	=137	=137	=137
1r	8c#	8e	8cc#
.	8r	8ee	8gg
.	4c#	8dd	8ff#
.	.	8ee	8gg
.	8e	8cc#	8ee
.	8r	8gg	8bb
.	4e	8ff#	8aa
.	.	8gg	8bb
=138	=138	=138	=138
1r	8a	8ee	8gg
.	8g#	8r	8r
.	8a	4ee	4gg
.	8g#	.	.
.	8a	8gg	8ccc#
.	8g#	8r	8r
.	8a	4gg	4ccc#
.	8g#	.	.
=139	=139	=139	=139
1r	8a	8ccc#	8eee
.	8g#	8r	8r
.	8a	4ccc#	4eee
.	8g#	.	.
.	8a	8eee	8ggg
.	8g#	8r	8r
.	8a	4eee	4ggg
.	8g#	.	.
=140	=140	=140	=140
8a	8a	8ccc#	8eee
8g#	8r	8r	8r
8a	4gg	4ccc#	4eee
8g#	.	.	.
8a	8ee	8gg	8ccc#
8g#	8r	8r	8r
8a	4ee	4gg	4ccc#
8g#	.	.	.
=141	=141	=141	=141
8a	8cc#	8ee	8aa
8g#	8r	8r	8r
8a	4cc#	4ee	4aa
8g#	.	.	.
8a	8dd	8ff#	8ff#
8g	8r	8r	8r
8f#	4f#	4ff#	4ff#
8e	.	.	.
=142	=142	=142	=142
8d	8d	8dd	8dd
8r	8r	8r	8r
4d	4d	4dd	4dd
8F#	8F#	8f#	8f#
8r	8r	8r	8r
4F#	4F#	4f#	4f#
=143	=143	=143	=143
2.A	2.A	2.a	2.a
8.F#	8.F#	8.f#	8.f#
16D	16D	16d	16d
=144	=144	=144	=144
4AA	4A	4A	4A
4AA	4A	4A	4A
4AA	4A	4A	4A
4AA	4A	4A	4A
=145	=145	=145	=145
4AA	2.A	[1A	2.A
8.E	.	.	.
16C#	.	.	.
[2AA	.	.	.
.	8.C#	.	8.g
.	16E	.	16e
=146	=146	=146	=146
1AA_	4G	1A_	4c#
.	4G	.	4c#
.	4G	.	4c#
.	4G	.	4c#
=147	=147	=147	=147
4AA]	2.G	2.A]	2.c#
8.E	.	.	.
16C#	.	.	.
[2AA	.	.	.
.	8.C#	8.g	8.b
.	16E	16e	16g
=148	=148	=148	=148
1AA_	4G	4c#	4e
.	4G	4c#	4e
.	4G	4c#	4e
.	4G	4c#	4e
=149	=149	=149	=149
4AA]	2.G	2.c#	2.e
8.E	.	.	.
16C#	.	.	.
[2AA	.	.	.
.	8.E	8.cc#	8.ee
.	16G	16g	16cc#
=150	=150	=150	=150
4AA]	4c#	4e	4g
4AA	4c#	4e	4g
4AA#	4c#	4e	4g
4AA#	4c#	4e	4g
=151	=151	=151	=151
4BB	4d	2d	4f#
4GG	4B	.	4b
4r	4r	4r	4r
4GG	4E	[4A	4c#
=152	=152	=152	=152
4FF#	4F#	4A]	4d
4BB	4G	2d	4g
4AA	4A	.	4f#
4AA	4A 4G	4c#	4e
=153	=153	=153	=153
4D	[2A 2G	2c#	2e
4AA	.	.	.
4DD	4A] 4F#	4d	4f#
4r	4r	4r	4ddd
=154	=154	=154	=154
1r	1r	4r	8ff#
.	.	.	8r
.	.	8.dd	4ff#
.	.	16b	.
.	.	4g	8bb
.	.	.	8r
.	.	8.g	4bb
.	.	16e	.
=155	=155	=155	=155
1r	1r	4c#	4ee
.	.	8.f#	2aa
.	.	16d	.
.	.	4B	.
.	.	8.b	8.gg
.	.	16g	16ee
=156	=156	=156	=156
1r	1r	4f#	4dd
.	.	8.b	4dd
.	.	16g#	.
.	.	4a	4dd
.	.	4A	8.ee
.	.	.	16ff#
=157	=157	=157	=157
1r	1r	4d	4dd
.	.	8.f#	2.r
.	.	16a	.
.	.	4dd	.
.	.	4gg	.
=158	=158	=158	=158
1r	4r	8b	1r
.	.	8r	.
.	8.g	4b	.
.	16e	.	.
.	4c	8ee	.
.	.	8r	.
.	8.c	4ee	.
.	16A	.	.
=159	=159	=159	=159
1r	4F#	4a	1r
.	8.B	2dd	.
.	16G	.	.
.	4E	.	.
.	8.e	8.cc	.
.	16c	16a	.
=160	=160	=160	=160
1r	4B	4g	1r
.	8.e	4g	.
.	16c#	.	.
.	4d	4g	.
.	4D	8.a	.
.	.	16b	.
=161	=161	=161	=161
1r	4G	4g	4r
.	2.r	4ee	8gg
.	.	.	8aa
.	.	4dd	8bb
.	.	.	8ccc
.	.	4d	8aa
.	.	.	8bb
=162	=162	=162	=162
1r	4r	4g	4gg
.	4e	8g	2.r
.	.	8a	.
.	4d	8b	.
.	.	8cc	.
.	4D	8a	.
.	.	8b	.
=163	=163	=163	=163
4r	4G	4g	1r
4E	8G	2.r	.
.	8A	.	.
4D	8B	.	.
.	8c	.	.
4DD	8A	.	.
.	8B	.	.
=164	=164	=164	=164
4GG	4G	4r	4r
2.r	2r	4dd	8.aa
.	.	.	16bb
.	.	4b	4gg
.	4d	8.a	4r
.	.	16b	.
=165	=165	=165	=165
4r	4B	4g	2.r
4D	8.A	2r	.
.	16B	.	.
4BB	4G	.	.
4B	4b	4ff#	4ddd#
=166	=166	=166	=166
2G	2b	2ee	2eee
2D#	2b	2ff#	2bb
=167	=167	=167	=167
2E	2b	2ee	4.gg
.	.	.	16ff#
.	.	.	16gg
4r	4r	4r	[2ee
4G	4e	4b	.
=168	=168	=168	=168
2F#	2a	2cc	4ee]
.	.	.	4dd#
4r	4r	4r	4ccc
4D#	[4b	4ff#	4bb
=169	=169	=169	=169
4E	4b]	2ff#	2aa
2EE	4dd#	.	.
.	4ee	4ee	4gg
8FF#	4r	4r	4r
8GG	.	.	.
=170	=170	=170	=170
4AA	[1A	[1cc# [1e	2gg
4C#	.	.	.
4E	.	.	4gg
4C#	.	.	4gg
=171	=171	=171	=171
4AA	4A]	8cc#] 8e]	8aa
.	.	8ee	8gg
2.r	4A	8dd	8ff#
.	.	8cc#	8ee
.	4a	[2cc#	[2ee
.	4a	.	.
=172	=172	=172	=172
1r	[1a	8cc#]	8ee]
.	.	8dd	8ff#
.	.	8ee	8gg
.	.	8ee#	8gg#
.	.	4ff#	4aa
.	.	4ee	4gg
=173	=173	=173	=173
4r	2.a]	4cc#	4ee#
4D	.	4dd	4ff#
4d	.	4r	4r
4d	4f#	4a	4aa
=174	=174	=174	=174
[1d	4.g	4.b	4.bb
.	8a	8cc#	8ccc#
.	8b	8dd	8ddd
.	8a	8cc#	8ccc#
.	8b	8dd	8ddd
.	8g	8b	8bb
=175	=175	=175	=175
4d]	4f#	4a	4aa
4D	4d	4f#	4ff#
4d	4r	4r	4r
4d	4f#	4a	4aa
=176	=176	=176	=176
[1d	8g	8b	8bb
.	8a	8cc#	8ccc#
.	8b	8dd	8ddd
.	8a	8cc#	8ccc#
.	8b	8dd	8ddd
.	8a	8cc#	8ccc#
.	8b	8dd	8ddd
.	8g	8b	8bb
=177	=177	=177	=177
4d]	4f#	4a	4aa
4D	4d	4f#	4ff#
8r	[2A	8r	8r
8D	.	8f#	8a
8E	.	8e	8g
8F#	.	8d	8f#
=178	=178	=178	=178
8G	8A]	8c#	8e
8G	8A	8c#	8e
4G	8a	4c#	4e
.	8a	.	.
8r	[2a	8r	8r
8d	.	8ff#	8aa
8e	.	8ee	8gg
8f#	.	8dd	8ff#
=179	=179	=179	=179
8g	8a]	8cc#	8ee
8g	8a	8cc#	8ee
4g	8A	4cc#	4ee
.	8A	.	.
8r	2A	8r	8r
8D	.	8f	8a
8E	.	8e	8g
8F	.	8d	8f
=180	=180	=180	=180
4G	4B-	4c#	4e
4G	4B-	4c#	4e
4G	4B-	4c#	4e
4G	4B-	4c#	4e
=181	=181	=181	=181
2G#	1B	1d	2.e
2GG#	.	.	.
.	.	.	8f
.	.	.	8e
=182	=182	=182	=182
4AA	4E	8c#	4e
.	.	8e	.
2.r	2.r	8c#	2r
.	.	8e	.
.	.	8a	.
.	.	8e	.
.	.	8c#	4ee
.	.	8e	.
=183	=183	=183	=183
2.r	4r	8A	8cc#
.	.	8c#	8r
.	4A	8e	4cc#
.	.	8c#	.
.	8B	8G#	8e
.	8r	8B	8r
4E	4G#	8d	4e
.	.	8B	.
=184	=184	=184	=184
8C#	4e	8A	4a
8r	.	8c#	.
4C#	2.r	8e	2r
.	.	8a	.
8EE	.	8g#	.
8r	.	8b	.
4EE	.	8dd	4eee
.	.	8b	.
=185	=185	=185	=185
4AA	4r	8e	8ccc#
.	.	8a	8r
2r	4a	8cc#	4ccc#
.	.	8a	.
.	8b	8g#	8ee
.	8r	8b	8r
4e	4g#	8dd	4ee
.	.	8b	.
=186	=186	=186	=186
8c#	2ee	8a	2.aa
8r	.	8cc#	.
4c#	.	8ee	.
.	.	8cc#	.
8E	2cc#	8a	.
8r	.	8cc#	.
4E	.	8ee	8.gg
.	.	8cc#	.
.	.	.	16ee
=187	=187	=187	=187
2.A	2e	8g	8cc#
.	.	8a	8r
.	.	8cc#	4cc#
.	.	8a	.
.	2c#	8g	8ee
.	.	8a	8r
8.G	.	8cc#	4ee
.	.	8a	.
16E	.	.	.
=188	=188	=188	=188
8C#	1A	8e	2.a
8r	.	8g	.
4C#	.	8a	.
.	.	8g	.
8E	.	8c#	.
8r	.	8e	.
4E	.	8g	8b
.	.	8e	8a
=189	=189	=189	=189
2.AA	2C#	8G	4a
.	.	8c#	.
.	.	8e	4a
.	.	8c#	.
.	2E	8A	4g
.	.	8c#	.
8BB	.	8e	4g
8AA	.	8c#	.
=190	=190	=190	=190
4AA	8D	8A	4f#
.	8F#	8d	.
4AA	[2.A	8f#	2r
.	.	8d	.
4GG	.	8c#	.
.	.	8e	.
4GG	.	8g	12a
.	.	.	12b
.	.	8e	.
.	.	.	12cc#
=191	=191	=191	=191
4FF#	1A_	8d	4dd
.	.	8f#	.
2r	.	8a	4dd
.	.	8f#	.
.	.	8g	4ee
.	.	8a	.
12AA	.	8cc#	4ee
12BB	.	.	.
.	.	8a	.
12C#	.	.	.
=192	=192	=192	=192
4D	1A]	8f#	12ff#
.	.	.	12gg
.	.	8a	.
.	.	.	12ff#
4D	.	8dd	12dd
.	.	.	12ee
.	.	8a	.
.	.	.	12ff#
4E	.	8g	12gg
.	.	.	12aa
.	.	8a	.
.	.	.	12gg
4E	.	8cc#	12ee
.	.	.	12ff#
.	.	8a	.
.	.	.	12gg
=193	=193	=193	=193
12F#	4A	8a	4aa
12G	.	.	.
.	.	8dd	.
12F#	.	.	.
12D	2a	8ff#	4r
12E	.	.	.
.	.	8dd	.
12F#	.	.	.
12G	.	8b	4bb
12A	.	.	.
.	.	8dd	.
12G	.	.	.
12E	8g	8gg	4r
12F#	.	.	.
.	8b	8dd	.
12G	.	.	.
=194	=194	=194	=194
4A	4ee	4gg	4ccc#
4B	4dd	4ff#	4ddd
2r	2r	2r	4r
.	.	.	4dd
=195	=195	=195	=195
1r	4r	2.r	[1gg
.	4d	.	.
.	2b	.	.
.	.	4g	.
=196	=196	=196	=196
4r	1b-	2.ee-	1gg_
4BB-	.	.	.
4G	.	.	.
4E	.	4dd	.
=197	=197	=197	=197
4A	2a	2cc#	4gg]
4F#	.	.	4aa
4B	4d	[2dd	8gg
.	.	.	8ff#
4F#	4a	.	8ee
.	.	.	8dd
=198	=198	=198	=198
4G	2b	2dd]	1ee
4E	.	.	.
4A	4a	2cc#	.
4AA	4g	.	.
=199	=199	=199	=199
2BB	4f#	8dd	4dd
.	.	8b	.
.	2.r	8f#	2.r
.	.	8e	.
4r	.	8d	.
.	.	8f#	.
4BB	.	8d	.
.	.	8B	.
=200	=200	=200	=200
2AA#	1f#	8c#	1r
.	.	8e	.
.	.	8c#	.
.	.	8B	.
4r	.	8A#	.
.	.	8c#	.
4FF#	.	8e	.
.	.	8c#	.
=201	=201	=201	=201
2BB	2d	8B	1r
.	.	8d	.
.	.	8f#	.
.	.	8d	.
8r	2B	8f#	.
8BB	.	8d	.
8D	.	8B	.
8BB	.	8d	.
=202	=202	=202	=202
2AA#	2.F#	8c#	1r
.	.	8e	.
.	.	8f#	.
.	.	8e	.
8r	.	8f#	.
8FF#	.	8e	.
8AA#	8G	8c#	.
8FF#	8F#	8e	.
=203	=203	=203	=203
[1BB	2.F#	8d	2.r
.	.	8f#	.
.	.	8b	.
.	.	8f#	.
.	.	8d	.
.	.	8f#	.
.	4f#	8b	4ff#
.	.	8f#	.
=204	=204	=204	=204
1BB]	8d	8b	8dd
.	8r	8f#	8r
.	4d	8d	4dd
.	.	8f#	.
.	8F#	8d	8f#
.	8r	8f#	8r
.	4F#	8d	4f#
.	.	8B	.
=205	=205	=205	=205
[1AA	2.A	8d	2.a
.	.	8f#	.
.	.	8d	.
.	.	8A	.
.	.	8d	.
.	.	8f#	.
.	8.F#	8a	8.f#
.	.	8f#	.
.	16D	.	16d
=206	=206	=206	=206
1AA]	4C#	8g	4A
.	.	8e	.
.	4C#	8A	4A
.	.	8e	.
.	4C#	8g	4A
.	.	8e	.
.	4E	8a	4c#
.	.	8g	.
=207	=207	=207	=207
2BB-	4D	8f	4d
.	.	8b-	.
.	2.r	8dd	16gg
.	.	.	8.ff
.	.	8b-	.
4r	.	8d	[2ff
.	.	8f	.
4BB-	.	8b-	.
.	.	8f	.
=208	=208	=208	=208
2AA	2.r	8e-	4ff]
.	.	8f	.
.	.	8cc	16ee
.	.	.	8.ff
.	.	8f	.
4r	.	8c	[2ff
.	.	8f	.
4FF	16f	8a	.
.	8.e-	.	.
.	.	8f	.
=209	=209	=209	=209
2BB-	2.d	8f	4ff]
.	.	8b-	.
.	.	8f	16ggg
.	.	.	8.fff
.	.	8e-	.
8r	.	8d	[2fff
8BB-	.	8f	.
8D	16cc#	8b-	.
.	8.dd	.	.
8BB-	.	8f	.
=210	=210	=210	=210
2AA	2.ee-	8c	4fff]
.	.	8f	.
.	.	8cc	16eee
.	.	.	8.fff
.	.	8f	.
8r	.	8c	[2fff
8FF	.	8a	.
8AA	16ff	8cc	.
.	8.ee-	.	.
8FF	.	8a	.
=211	=211	=211	=211
[1BB-	2.dd	8b-	4fff]
.	.	8dd	.
.	.	8b-	16ggg
.	.	.	8.fff
.	.	8f	.
.	.	8d	4fff
.	.	8f	.
.	4ff	8b-	4fff
.	.	8f	.
=212	=212	=212	=212
1BB-]	8dd	8g#	8ddd
.	8r	8f	8r
.	4dd	8g#	4ddd
.	.	8f	.
.	8f	8d	8ff
.	8r	8f	8r
.	4f	8g#	4ff
.	.	8f	.
=213	=213	=213	=213
[1AA	2.a	8d	2.aa
.	.	8f#	.
.	.	8d	.
.	.	8A	.
.	.	8d	.
.	.	8f#	.
.	8.f#	8a	8.ff#
.	.	8f#	.
.	16d	.	16dd
=214	=214	=214	=214
1AA]	4A	8c#	4a
.	.	8e	.
.	4A	8g	4a
.	.	8e	.
.	4A	8g	4a
.	.	8e	.
.	4c#	8a	4cc#
.	.	8g	.
=215	=215	=215	=215
4D	4d	4f#	4dd
2r	2r	2r	8dd
.	.	.	16cc#
.	.	.	16dd
.	.	.	4b
4G	4e	4b	8ee
.	.	.	8r
=216	=216	=216	=216
4G#	4b	4dd	4r
4A	4a	4cc#	8ff#
.	.	.	16ee
.	.	.	16ff#
4r	4r	4r	4dd
4B	4g	4dd	8gg
.	.	.	8r
=217	=217	=217	=217
4c	4b-	2ee	4r
4c#	2a	.	8aa
.	.	.	16gg
.	.	.	16aa
4d	.	4dd	4ff#
4G#	4f	8dd	4bb
.	.	16cc#	.
.	.	16dd	.
=218	=218	=218	=218
4A	4e	4cc#	4ee
4F#	4e-	8cc	4aa
.	.	16b	.
.	.	16cc	.
4G	4d	4b	4dd
4E	8c#	8b-	[4gg
.	8d	16a	.
.	.	16b-	.
=219	=219	=219	=219
4C#	4e	2a	4gg]
4D	4d	.	4ff#
4G	4b	8a	8ff#
.	.	8g	8ee
4A	4a	8g	8ee
.	.	8e	8cc#
=220	=220	=220	=220
4D	4a	4f#	4dd
8D	8f#	2r	2r
16C#	16e	.	.
16D	16f#	.	.
4BB	4d	.	.
8E	8g	8e	8gg
8r	8r	16d	16ff#
.	.	16e	16gg
=221	=221	=221	=221
4r	4r	4c#	4ee
8F#	8a	8f#	8aa
16E	16g	4.r	4.r
16F#	16a	.	.
4D	4f#	.	.
8G	8b	8g	8bb
8r	8r	16f#	16aa
.	.	16g	16bb
=222	=222	=222	=222
4r	4r	4e	4gg
8A	8c#	2a	2ccc#
16G	16B	.	.
16A	16c#	.	.
4F#	4A	.	.
4B	4f	4g#	8ddd
.	.	.	16ccc#
.	.	.	16ddd
=223	=223	=223	=223
4B-	4e	4g	4ccc#
4A	4d#	4f#	8ccc
.	.	.	16bb
.	.	.	16ccc
4G#	4d	4f	4bb
[4G	4c#	4e	8bb-
.	.	.	16aa
.	.	.	16bb-
=224	=224	=224	=224
4G]	4e	4cc#	[3..aa
4F#	8f#	4dd	.
.	8a	.	.
4G	4b	8ff#	.
.	.	.	24aa]
.	.	8ee	8gg
4A	8a	8dd	8ff#
.	8g	8cc#	8ee
=225	=225	=225	=225
2.D	8f#	8dd	4dd
.	8a 8f#	8dd	.
.	8a 8f#	8dd	16ddd
.	.	.	8.aa
.	8a 8f#	8dd	.
.	8a 8f#	8dd	[2aa
.	8a 8f#	8dd	.
16F#	8a 8f#	8dd	.
8.A	.	.	.
.	8a 8f#	8dd	.
=226	=226	=226	=226
2.d	8a 8f#	8dd	4aa]
.	8a 8f#	8dd	.
.	8a 8f#	8dd	16ddd
.	.	.	8.aa
.	8a 8f#	8dd	.
.	8a 8f#	8dd	4aa
.	8a 8f#	8dd	.
16DD	8a 8f#	8dd	4aa
8.FF#	.	.	.
.	8a 8f#	8dd	.
=227	=227	=227	=227
2.GG	8b 8e	8dd	4bb
.	8b 8e	8dd	.
.	8b 8e	8dd	16ddd
.	.	.	8.bb
.	8b 8e	8dd	.
.	8b 8e	8dd	[2bb
.	8b 8e	8dd	.
16E	8dd	8gg	.
8.G	.	.	.
.	8dd	8ff#	.
=228	=228	=228	=228
2A	8dd	8ee	8bb]
.	8dd	8ee	8aa
.	8cc#	8ee	8aa
.	8cc#	8ee	8aa
2AA	8cc#	8ee	4aa
.	8cc#	8ee	.
.	8dd	8ff#	8bb
.	8ee	8gg	8ccc#
=229	=229	=229	=229
2.D	8dd	8ff#	4ddd
.	8a 8f#	8dd	.
.	8a 8f#	8dd	16ddd
.	.	.	8.aa
.	8a 8f#	8dd	.
.	8a 8f#	8dd	[2aa
.	8a 8f#	8dd	.
16F#	8a 8f#	8dd	.
8.A	.	.	.
.	8a 8f#	8dd	.
=230	=230	=230	=230
2.d	8a 8f#	8dd	4aa]
.	8a 8f#	8dd	.
.	8a 8f#	8dd	16ddd
.	.	.	8.aa
.	8a 8f#	8dd	.
.	8a 8f#	8dd	4aa
.	8a 8f#	8dd	.
16DD	8a 8f#	8dd	4aa
8.FF#	.	.	.
.	8a 8f#	8dd	.
=231	=231	=231	=231
2.GG	8b 8e	8dd	4bb
.	8b 8e	8dd	.
.	8b 8e	8dd	16ddd
.	.	.	8.bb
.	8b 8e	8dd	.
.	8b 8e	8dd	[2bb
.	8b 8e	8dd	.
16E	8dd	8gg	.
8.G	.	.	.
.	8dd	8ff#	.
=232	=232	=232	=232
2A	8dd	8ee	8bb]
.	8dd	8ee	8aa
.	8cc#	8ee	8aa
.	8cc#	8ee	8aa
2AA	8cc#	8ee	4aa
.	8cc#	8ee	.
.	8dd	8ff#	8bb
.	8ee	8gg	8ccc#
=233	=233	=233	=233
4BB	4.dd	8ff#	4ddd
.	.	4bb	.
2E	.	.	16ddd
.	.	.	8.bb
.	8cc#	8aa	.
.	8b	8gg	[2bb
.	8a	8ff#	.
8F#	8g	8ee	.
8G	8f#	8dd	.
=234	=234	=234	=234
2A	8e	8cc#	8bb]
.	8e	8cc#	8aa
.	8f#	8dd	8aa
.	8f#	8dd	8aa
2AA	8g	8ee	4aa
.	8b	8gg	.
.	8a	8ff#	8bb
.	8g	8ee	8ccc#
=235	=235	=235	=235
4BB	8f#	8dd	4ddd
.	4d	4b	.
2EE	.	.	16ddd
.	.	.	8.bb
.	8c#	8a	.
.	8B	8g	[2bb
.	8A	8f#	.
8FF#	8G	8e	.
8GG	8F#	8d	.
=236	=236	=236	=236
1AA	8E	8c#	8bb]
.	8E	8c#	8aa
.	8F#	8d	8aa
.	8F#	8d	8aa
.	8G	8e	4aa
.	8A	8f#	.
.	8B	8g	8gg
.	8c#	8g	8ee
=237	=237	=237	=237
4D	8d	8f#	8dd
.	8d	8f#	8ff#
4F#	8d	8f#	8aa
.	8d	8f#	8aa
4A	8c#	8e	4aa
.	8c#	8e	.
4AA	8c#	8e	8gg
.	8c#	8g	8ee
=238	=238	=238	=238
4D	8d	8f#	8dd
.	8d	8f#	8ff#
4F#	8d	8f#	8aa
.	8d	8f#	8aa
4A	8c#	8e	4aa
.	8c#	8e	.
4AA	8c#	8e	8gg
.	8c#	8g	8ee
=239	=239	=239	=239
8D	8d	8f#	8dd
8r	8r	8a	8ff#
8A	8cc#	8g	8ee
8r	8r	8a	8ff#
8d	8dd	8f#	8dd
8r	8r	8a	8ff#
8A	8cc#	8g	8ee
8r	8r	8a	8ff#
=240	=240	=240	=240
4D	4dd	4f#	4dd
2.r	2.r	2.r	2.r
=241a	=241a	=241a	=241a
8d	8a	8dd	8ff
8r	8r	8ff	8aa
8A	8cc#	8ee	8gg
8r	8r	8ff	8aa
8d	8dd	8dd	8ff
8r	8r	8ff	8aa
8A	8cc#	8ee	8gg
8r	8r	8ff	8aa
=242a	=242a	=242a	=242a
4d	4dd	4dd	4ff
4r	4r	4r	4r
2r	2r	2r	2r
=241b	=241b	=241b	=241b
8BB	8f#	8dd	8bb
8r	8r	8ff#	8ddd
8F#	8a#	8ee	8ccc#
8r	8r	8ff#	8ddd
8B	8b	8dd	8bb
8r	8r	8ff#	8ddd
8F#	8a#	8ee	8ccc#
8r	8r	8ff#	8ddd
=242b	=242b	=242b	=242b
4BB	4b	4dd	4bb
4r	4r	4r	4r
2r	2r	2r	2r
=243	=243	=243	=243
8G	8b	8dd	8gg
8r	8dd	8r	8bb
8d	8cc	8ff#	8aa
8r	8dd	8r	8bb
8g	8b	8gg	8gg
8r	8dd	8r	8bb
8d	8cc	8ff#	8aa
8r	8dd	8r	8bb
=244	=244	=244	=244
4G	4b	4gg	8gg
.	.	.	8bb
2.r	2.r	2.r	8aa
.	.	.	8bb
.	.	.	8gg
.	.	.	8bb
.	.	.	8aa
.	.	.	8bb
=245	=245	=245	=245
1r	1r	8b-	8gg
.	.	8dd	8bb-
.	.	8cc	8aa
.	.	8dd	8bb-
.	.	8b-	8gg
.	.	8dd	8bb-
.	.	8cc	8aa
.	.	8dd	8bb-
=246	=246	=246	=246
1r	1r	8b-	8gg
.	.	8dd	8bb-
.	.	8cc	8aa
.	.	8dd	8bb-
.	.	8b-	8gg
.	.	8dd	8bb-
.	.	8cc	8aa
.	.	8dd	8bb-
=247	=247	=247	=247
1r	8a	8cc#	1gg
.	8cc#	8ee	.
.	8b	8dd	.
.	8cc#	8ee	.
.	8a	8cc#	.
.	8cc#	8ee	.
.	8b	8dd	.
.	8cc#	8ee	.
=248	=248	=248	=248
1r	8a	8cc#	1A
.	8ee	8gg	.
.	8dd	8ff#	.
.	8ee	8gg	.
.	8cc#	8ee	.
.	8ee	8gg	.
.	8dd	8ff#	.
.	8cc#	8ee	.
=249	=249	=249	=249
8G#	8dd	2.ff	2.G#
8B	8d	.	.
8A	8c#	.	.
8B	8d	.	.
8G#	8B	.	.
8B	8d	.	.
8A	8c#	[4dd	4fff
8B	8d	.	.
=250	=250	=250	=250
8G#	8B	4dd]	8ddd
8B	8d	.	8r
8A	8c#	2b	4ddd
8B	8d	.	.
8G#	8B	.	8ff
8B	8d	.	8r
8A	8c#	4f	4ff
8B	8B	.	.
=251	=251	=251	=251
1A	8d	8f#	2.aa
.	8f#	8a	.
.	8e	8g	.
.	8f#	8a	.
.	8d	8f#	.
.	8f#	8a	.
.	8e	8g	8.ff#
.	8d	8f#	.
.	.	.	16dd
=252	=252	=252	=252
1AA	8e	8g	4a
.	8e	8g	.
.	8d	8f#	4a
.	8e	8g	.
.	8c#	8e	4a
.	8B	8g	.
.	8A	8f#	4cc#
.	8G	8e	.
=253	=253	=253	=253
4D	4F#	8d	4dd
.	.	8c#	.
2.r	2.r	8d	4r
.	.	8c#	.
.	.	8d	4r
.	.	8c#	.
.	.	8d	4aaa
.	.	8c#	.
=254	=254	=254	=254
1r	1r	8d	8fff#
.	.	8c#	8r
.	.	8d	4fff#
.	.	8c#	.
.	.	8d	8aa
.	.	8c#	8r
.	.	8d	4aa
.	.	8c#	.
=255	=255	=255	=255
1r	8D	8d	8ddd
.	8C#	8e	3..r
.	8D	8f#	.
.	8C#	8e	.
.	8D	8f#	.
.	8C#	8e	.
.	.	.	24r
.	8D	8f#	4fff#
.	8C#	8e	.
=256	=256	=256	=256
1r	8D	8f#	8ddd
.	8C#	8e	8r
.	8D	8f#	4ddd
.	8C#	8e	.
.	8D	8f#	8ff#
.	8C#	8e	8r
.	8D	8f#	4ff#
.	8C#	8e	.
=257	=257	=257	=257
8DD	8D	8f#	4aa
8CC#	8E	4a	.
8DD	8F#	.	2r
8CC#	8E	4a	.
8DD	8F#	.	.
8CC#	8E	4a	.
8DD	8F#	.	4ddd
8CC#	8E	[8a	.
=258	=258	=258	=258
8DD	8F#	8a]	8aa
8CC#	8E	4a	8r
8DD	8F#	.	4aa
8CC#	8E	4a	.
8DD	8F#	.	8dd
8CC#	8E	4a	8r
8DD	8F#	.	4dd
8CC#	8E	8a	.
=259	=259	=259	=259
[1DD	[1F#	[1a	8ff#
.	.	.	8ff#
.	.	.	8a
.	.	.	8a
.	.	.	8dd
.	.	.	8dd
.	.	.	8f#
.	.	.	8f#
=260	=260	=260	=260
1DD_	1F#_	1a_	8a
.	.	.	8a
.	.	.	8d
.	.	.	8d
.	.	.	8f#
.	.	.	8f#
.	.	.	8A
.	.	.	8A
=261	=261	=261	=261
4DD]	4F#]	4a]	8d
.	.	.	8f#
2r	2r	2r	8e
.	.	.	8f#
.	.	.	8d
.	.	.	8f#
4AA	4G	4c#	8e
.	.	.	8f#
=262	=262	=262	=262
4DD	4F#	4d	8d
.	.	.	8a
2r	2r	2r	8g
.	.	.	8a
.	.	.	8f#
.	.	.	8a
4A	4c#	4e	8g
.	.	.	8a
=263	=263	=263	=263
4D	4d	8f#	8f#
.	.	8a	8ff#
2.r	2.r	8g	8ee
.	.	8a	8ff#
.	.	8f#	8dd
.	.	8a	8ff#
.	.	8g	8ee
.	.	8a	8ff#
=264	=264	=264	=264
1r	4r	8f#	8dd
.	.	8ff#	8aa
.	8a	8ee	8gg
.	8r	8ff#	8aa
.	8dd	8dd	8ff#
.	8r	8ff#	8aa
.	8a	8ee	8gg
.	8r	8ff#	8aa
=265	=265	=265	=265
4r	8dd	8dd	8ff#
.	8r	8aa	8fff#
8A	8cc#	8gg	8eee
8r	8r	8aa	8fff#
8d	8dd	8ff#	8ddd
8r	8r	8aa	8fff#
8A	8cc#	8gg	8eee
8r	8r	8aa	8fff#
=266	=266	=266	=266
4d	4dd	4ff#	4ddd
2.r	2.r	2.r	2.r
==	==	==	==
*-	*-	*-	*-
!!!RWG1: This file contains only pitch and duration data.
!!!RWG2: Transposing instruments are not transposed.
!!!RWG3: Spines may have incompatible meters.
!!!RWG4: Durations of rests and tied notes may be interpreted.
!!!RWG: Key is interpreted using the Humdrum key tool.
!!!AFT: stage1
!!!END: 1997/04/15
!!!KEY: 1824789426
!!!EMD: Converted from MuseData to Humdrum Dec 16, 2000, by Andreas Kornstaedt using muse2kern.
!!!EMD: Manual editing by Craig Sapp, Nov 2001
